img/svg/home.svg

<?xml version="1.0" encoding="utf-8"?><!DOCTYPE svg PUBLIC "-//W3C//DTD SVG 1.1//EN" "http://www.w3.org/Graphics/SVG/1.1/DTD/svg11.dtd"><svg version="1.1" baseProfile="full" xmlns="http://www.w3.org/2000/svg" xmlns:xlink="http://www.w3.org/1999/xlink" xmlns:ev="http://www.w3.org/2001/xml-events"   height="25px"   width="27px" ><path fill="rgb( 48, 171, 223 )" d="M1.48599999999999,12.755 C1.48599999999999,12.755 13.5,2.06899999999996 13.5,2.06899999999996 C13.5,2.06899999999996 25.515,12.755 25.515,12.755 C25.673,12.896 25.8680000000001,12.965 26.064,12.965 C26.298,12.965 26.53,12.864 26.696,12.67 C27,12.3099999999999 26.961,11.769 26.614,11.456 C26.614,11.456 14.05,0.28099999999995 14.05,0.28099999999995 C13.735,0 13.2670000000001,0 12.952,0.28099999999995 C12.952,0.28099999999995 8.47500000000002,4.26199999999994 8.47500000000002,4.26199999999994 C8.47500000000002,4.26199999999994 8.47500000000002,2.64999999999998 8.47500000000002,2.64999999999998 C8.47500000000002,1.70100000000002 7.72400000000005,0.92999999999995 6.79899999999998,0.92999999999995 C5.875,0.92999999999995 5.12400000000002,1.70100000000002 5.12400000000002,2.64999999999998 C5.12400000000002,2.64999999999998 5.12400000000002,7.24199999999996 5.12400000000002,7.24199999999996 C5.12400000000002,7.24199999999996 0.38699999999994,11.456 0.38699999999994,11.456 C0.03899999999999,11.7670000000001 0,12.3099999999999 0.30399999999997,12.67 C0.60900000000004,13.027 1.13599999999997,13.066 1.48599999999999,12.755 ZM10.15,16.404 C10.15,16.404 16.851,16.404 16.851,16.404 C16.851,16.404 16.851,25 16.851,25 C16.851,25 21.877,25 21.877,25 C22.799,25 23.552,24.23 23.552,23.2809999999999 C23.552,23.2809999999999 23.552,14.856 23.552,14.856 C23.552,14.3390000000001 23.326,13.852 22.937,13.526 C22.937,13.526 14.561,6.47799999999995 14.561,6.47799999999995 C14.254,6.21900000000005 13.877,6.08799999999997 13.5,6.08799999999997 C13.123,6.08799999999997 12.746,6.21900000000005 12.438,6.47799999999995 C12.438,6.47799999999995 4.06299999999999,13.526 4.06299999999999,13.526 C3.673,13.852 3.44899999999996,14.3390000000001 3.44899999999996,14.856 C3.44899999999996,14.856 3.44899999999996,23.2809999999999 3.44899999999996,23.2809999999999 C3.44899999999996,24.23 4.20000000000005,25 5.12400000000002,25 C5.12400000000002,25 10.15,25 10.15,25 C10.15,25 10.15,16.404 10.15,16.404 Z "/></svg>

<svg baseProfile="full" xmlns="http://www.w3.org/2000/svg" height="25" width="27"><path fill="rgb( 48, 171, 223 )" d="M1.486 12.755l12.014-10.686 12.015 10.686c.158.141.353.21.549.21.234 0 .466-.101.632-.295.304-.36.265-.901-.082-1.214l-12.564-11.175c-.315-.281-.783-.281-1.098 0l-4.477 3.981v-1.612c0-.949-.751-1.72-1.676-1.72-.924 0-1.675.771-1.675 1.72v4.592l-4.737 4.214c-.348.311-.387.854-.083 1.214.305.357.832.396 1.182.085zm8.664 3.649h6.701v8.596h5.026c.922 0 1.675-.77 1.675-1.719v-8.425c0-.517-.226-1.004-.615-1.33l-8.376-7.048c-.307-.259-.684-.39-1.061-.39-.377 0-.754.131-1.062.39l-8.375 7.048c-.39.326-.614.813-.614 1.33v8.425c0 .949.751 1.719 1.675 1.719h5.026v-8.596z"/></svg>
